X:218
T:Octopus' pipes
R:Reel
S:Midi found on the web...
Z:Transcription, chords:Mike Long
M:C|
L:1/8
K:C
"G"dB~B2 "D"ABcA|"G"GDB,D GABc|\
"G"dB~B2 "D"ADBD|"C"cDBD "D"AB (3(cBA):|\
"G"GBde "F"fdBG|"C"~c2 gc acgc|
"G"BGBd "F"fdBG|"C"cGce gedc|\
"G"BGBd "F"fdBG|"C"~c2 Gc EcGc|\
"G"BGFG "F"DGFG|"C"cGEG cBAG|]
